X: 18915
T: Independence, The
R: hornpipe
M: 4/4
K: Gmajor
V:1
Bc|:"G"dg"D"fa "G"(3gab gd|"C"(3efg "G"dc "G"(3Bcd BG|"D"FGAB "Am7"cBce|
"D"(3agf "C"(3gfe "G"d2 Bc|"G"dg"D"fa "G"(3gab gd|"C"(3efg "D"dc "G"(3Bcd ag|
"D"fedB cAFG||1 "D7"(3ABA GF "G"G2 Bc:|2 "D"(3ABA GF "G"G2 AB||
|:"D"(3cdc (3BAG (3FAc (3edc|"G"(3Bcd (3Bdg "Em7"(3bag (3fed|"Am7"(3cdc (3BAG "D"(3FAc (3edc|
"G"(3Bcd (3Bdg "Em7"(3bag (3fed|"C"e2 (3ceg (3c'ba (3gfe|"G"d2 (3Bdg "Em7"(3bag (3fed|
"Am7"(3ced (3cBA "D"(3fed (3cBA||1 "G"(3GBd (3gdB G2 AB:|2 "G"(3GBd (3gdB G2||
V:2
GA|:Bddc (3Bcd BG|(3cde BA (3GAB GE|DEFG AGAc|
(3fed (3edc BAGA|Bddc (3Bcd dB|(3cde BA (3GAB fe|
dcBG AFDE||(3FGF Bd g2 GA:|(3FGF Dc B2 FG||
|:(3ABA (3GFE (3DFA (3cBA|(3GAB (3GBd (3gfe (3dcB|(3ABA (3GFE (3DFA (3cBA|
(3GAB (3GBd (3gfe (3dcB|c2 (3Ace (3agf (3edc|B2 (3GBd (3gfe (3dcB|
(3AcB (3AGF (3dcB (3edc||(3Bdg (3bgd B2 FG:|(3Bdg (3bgd B2||

